X:3495
T:Country Bumpkin
R:Jig
O:England
M:6/8
A:Lancashire
B:Winder
K:G
c3 B3 | ABG FED | G2B BAB | G2B BAB |\
c3 B3 | ABG FED | g2d edc | B3 G3 :|*
|:gfe dcB | ABG FED | G2B BAB | G2B BAB | \
gfe dcB | ABG FED | g2d edc | B3 G3 :|*
|:cac BgB | ABG FED | G2B BAB | G2B BAB | \
cac BgB | ABG FED | g2d edc | B3 G3 :|**


